X:1
T:Amazing Grace
C:1772 - John Newton
Z:Copyright © www.realbook.site
L:1/4
M:3/4
I:linebreak $
K:G
V:1 treble nm=" " snm=" "
V:1
 D |:"G" G2 B/G/ |"G/B" B2 A |"C" G2 E |"G" D2 D |$ G2 B/G/ | B2 A |"D743" d3- |"D7" d z B |$ %9
"G" d3/2 B/ d/B/ |"G7/B" G2 D |"C" E3/2 G/ G/E/ |"G" D2"D7" D |$"Em" G2"G/B" B/G/ | %14
"Am9" B2"D7" A |1"G" G3- | G z D :|2"G" G3-"C/G" ||"G" G z z |] %19

